X:1
T:E minor Oliver Brownson, 1783
T:Unknown Author, First printed in 1750    886. 8886.
T:Buckland
T:Transcribed from Brownson's Select Harmony, 1783.
%%score [ 1 2 3 4 ]
L:1/8
Q:1/4=120
M:4/4
K:G
V:1 treble nm="Treble" snm="Tr."
V:2 treble nm="Counter" snm="C."
V:3 treble-8 nm="Tenor" snm="T."
V:4 bass nm="Bass" snm="B."
V:1
 B4 B2 B2 | (B3 A G2) G2 | F4 E4 | B8 | z4 B4 | B2 B2 B2 G2 | c2 cB c2 e2 | (e4 d2) c2 | %8
w: 1.~Th'E- ter- nal|speaks,~ _ _ all|heav'n at-|tends;|Who|that un- hap- py|race de- * fends, While|jus- * tice|
 B2 B2 B4- | B4 B4 | B2 B2 B2 c2 | B4 B4 | B8 | z4 B4 | (e3 d B2) A2 | G4 E4 | (B2 c2 BA) G2 | %17
w: aims the blow.~|_ See|na- ture trem- ble|at their|fates;|Death|with~ _ _ his|i- ron|scep- * * * ter|
 F4 z4 | z4 B4 | B2 B2 BA GA | (B3 A B2) Bc | d2 d2 d2 d2 | d2 B2 (c2 Bc | A2) A2 G2 GA | B4 B4 | %25
w: waits;|Hell|opes her ad- * a- *|man- * * tine *|gates, And tri- umphs|at their woe,~ _ _|_ And tri- umphs *|at their|
 B8 |] %26
w: woe.|
V:2
 E4 E2 ^D2 | E6 E2 | D4 ^C4 | G8 | z4 D4 | F2 F2 G2 D2 | E2 E2 E2 G2 | (F4 D2) E2 | GF FE E4- | %9
w: 2.~Which of the|bright ce-|les- tial|throng,|With|love so warm and|heart so strong, Dares|lan- * guish|on * a * cross?~|
 E4 G4 | F2 F2 G2 E2 | E4 F4 | E8 | z4 E4 | (G3 F E2) ^D2 | E4 E4 | (D2 E2 D2) D2 | D4 z4 | z4 D4 | %19
w: _ Who|can leave li- ber-|ty for|chains,|A-|ban- * * don|ec- sta-|sy~ _ _ for|pains?|What|
 B,2 ^D2 E2 E2 | E6 E2 | F2 F2 G2 G2 | G2 FG (A2 B2 | F2) F2 E2 E2 | E4 ^D4 | E8 |] %26
w: an- gel for- ti-|tude sus-|tains The in- esti-|ma- ble * loss,~ _|_ The in- esti-|ma- ble|loss.|
V:3
 B4 E2 F2 | (G3 A B2) c2 | A4 G4 | F8 | z4 B4 | d2 d2 d2 B2 | e2 e2 ed c2 | (A4 G2) E2 | D3 D E4- | %9
w: 3.~He said: and|death- * * like|si- lence|reigned;|Deep|was their awe, the|ra- diant band * The|migh- * ty|task de- clined.~|
 E4 B4 | d2 d2 e2 e2 | e>feg (f2 d2) | B8 | z4 G4 | (B3 A B2) d2 | c4 B4 | (G2 E2) G2 B2 | A4 d4 | %18
w: _ At|length heav'n's Prince the|si- * * * lence *|broke,|And|ar- * * dent,|this the|Sire~ _ _ be-|spoke: None|
 (d>edc B>cBA | G2) F2 E2 E2 | (E3 F G2) G2 | A2 A2 B2 Bc | d2 d2 (e4 | d2) B2 cB BA | G4 F4 | %25
w: but~ _ _ _ _ _ _ _|_ the Son can|ward~ _ _ the|stroke; Then let the *|task be mine,~|_ Then let * the *|task be|
 E8 |] %26
w: mine.|
V:4
 E,4 E,2 B,,2 | (E,4 E,D,) C,2 | D,4 E,4 | B,,8 | z4 B,,4 | B,,2 B,,2 G,2 G,2 | E,2 E,2 C,2 C,2 | %7
w: 4.~Th'Al- migh- ty|ra- * * diance|smiled as-|sent,|Loud|was the shout that|e- ther rent, All|
 (D,4 B,,2) A,,2 | B,,3 B,, E,4- | E,4 E,4 | B,,2 B,,2 E,2 A,2 | G,4 B,4 | E,8 | z4 E,4 | %14
w: heav'm~ _ was|in a- maze.~|_ Go,|my lov'd I- mage,|said the|Sire,|Be|
 (E,3 F, G,2) F,2 | E,4 E,4 | (B,,2 A,,2 B,,2) B,,C, | D,4 D,4 | B,,8- | B,,2 B,,2 E,2 E,2 | %20
w: born~ _ _ in|an- guish|to~ _ _ ex- *|pire; Earth|tri-|* umph; an- gels,|
 (G,3 F, E,2) E,2 | D,2 D,2 G,2 G,2 | G,2 B,2 (A,2 G,2 | F,2) D,2 E,2 E,2 | E,4 B,,4 | E,8 |] %26
w: strike~ _ _ the|lyre To ev- er-|las- ting praise,~ _|_ To ev- er-|las- ting|praise.|

